X:1
T:CHOLITA
T:CHOLITA
T:By ALBERTO KOLLMAN
T:Copyright 1922 by Jack Mils Inc.
T:Copyright 1922 by Jack Mils Inc.
T:Copyright 1922 by Jack Mils Inc.
T:Copyright 1922 by Jack Mils Inc.
C:By ALBERTO KOLLMAN
Z:Copyright 1922 by Jack Mils Inc.
%%score { 1 | 2 }
L:1/8
Q:1/4=90
M:2/4
K:F
V:1 treble nm="Piano" snm="Pno."
V:2 bass 
V:1
"^Tempo di Tango"!ff! [Afa]/[Afa][Afa]/ [Afa][Afa] | [A^ceg]/[Aceg][Aceg]/ [Aceg][Aceg] | %2
 [Afa]/[Afa][Afa]/ [Aa][Aa] |!ff! !fermata![A^cea]2 z2 ||!pp! [Afa]/[Bgb][Geg]/ [Afa][Fdf]/[Geg]/ | %5
 [E^ce]4 |!<(! [a^c']/[ae'][ac']/!<)!!f! [ae'][ac']/[ae']/ |!8va(! (3d'/e'/d'/ [fa]3!8va)! | %8
!pp! [Afa]/[Bgb][Geg]/ [Afa][Fdf]/[Geg]/ | [E^ce]4 | [a^c']/[ae'][ac']/ [ae'][ac']/[ae']/ | %11
 (3d'/e'/d'/ [fa]3 |!8va(! [fa]/[fd'][fa]/ [fd'][fa] |{/c'} [gb](3g/a/g/ fe | [^ca]2 e(3e/f/e/ | %15
!<(! d2!8va)!!<)!!ff! z2 | [Afa]/[Bgb][Geg]/ [Afa][Fdf]/[Geg]/ | [E^ce]4 | %18
!<(! [a^c']/[ae'][ac']/!<)!!f! [ae'][ac']/[ae']/ |!8va(! (3d'/e'/d'/ [fa]3!8va)! | %20
!pp! [Afa]/[Bgb][Geg]/ [Afa][Fdf]/[Geg]/ | [E^ce]4 | %22
!<(! [a^c']/[ae'][ac']/!<)!!f! [ae'][ac']/[ae']/ | (3d'/e'/d'/ [fa]3 | %24
!8va(! [fa][fd']/[fa]/ [fd'][fa] |{/c'} [gb](3g/a/g/ fe | [^ca]2 e(3e/f/e/ | %27
!<(! d2!8va)!!<)!!ff! z2 || z!<(! [A,DFA][DFd][FAf]!<)! |!f! !>![Afa]2 !>![Afa]2 | %30
 z z/!8va(!!>(! a''/4g''/4(14:8:14f''/4e''/4d''/4c''/4b'/4a'/4f'/4e'/4d'/4!8va)!c'/4b/4a/4g/4f/4!>)! | %31
!p! [e^c'e']4 | z!<(! [A,CEA][^CE^c][Ee]!<)! |!f! [A^ca]4 | %34
 z z/!8va(!!>(! (3a''/4g''/4f''/4(15:8:15e''/4d''/4c''/4b'/4a'/4g'/4f'/4e'/4d'/4!8va)!c'/4b/4a/4g/4f/4e/4!>)! | %35
!p! [dfd']4 | z [A,FA][DFd][FAf] |!f! [Afa]2 [Afa]2 | %38
 z z/!8va(!!>(! (3a''/4g''/4f''/4(15:8:15e''/4d''/4c''/4b'/4a'/4g'/4f'/4e'/4d'/4!8va)!c'/4b/4a/4g/4f/4e/4!>)! | %39
!p! [Bdb]4 | (b/g/d/B/) (b/g/d/B/) | (a/f/d/A/) (a/f/d/A/) | %42
 z!8va(! [^ce^c']/[dfd']/ [ege'][faf']/[ege']/ | [dfd']4!8va)! | z!<(! [A,DFA][DFd][FAf]!<)! | %45
!f! !>![Afa]2 !>![Afa]2 | %46
 z z/!8va(!!>(! a''/4g''/4(14:8:14f''/4e''/4d''/4c''/4b'/4a'/4f'/4e'/4d'/4!8va)!c'/4b/4a/4g/4f/4!>)! | %47
!p! [e^c'e']4 | z!<(! [A,CEA][^CE^c][Ee]!<)! |!f! [A^ca]4 | %50
 z z/!8va(!!>(! (3a''/4g''/4f''/4(15:8:15e''/4d''/4c''/4b'/4a'/4g'/4f'/4e'/4d'/4!8va)!c'/4b/4a/4g/4f/4e/4!>)! | %51
!p! [dfd']4 | z!<(! [A,FA][DFd][FAf]!<)! |!f! [Afa]2 [Afa]2 | %54
 z z/!8va(!!>(! (3a''/4g''/4f''/4(15:8:15e''/4d''/4c''/4b'/4a'/4g'/4f'/4e'/4d'/4!8va)!c'/4b/4a/4g/4f/4e/4!>)! | %55
!p! [Bdb]4 | (b/g/d/B/ b/g/d/B/) | (a/f/d/A/ a/f/d/A/) | %58
 z!8va(! [^ce^c']/[dfd']/ [ege'][faf']/[ege']/ |!p! [dd']2- [dd']/a/a/{/b}c'/!8va)! | %60
!<(!{/B} c/A/A/{/B}c/{/B} c/A/A/{/B}c/ |{/B} =cA!<)! z/ A/A/{/B}c/ | %62
!f!{/B} c/A/A/{/B}c/{/B} c/A/A/{/B}c/ |!>(!{/B} cA z/ (A/!>)!d/f/) | (a/f/d/A/) (a/f/d/A/) | %65
 [Ag][^ce] z/ (A/c/e/) | (g/e/^c/A/) (g/e/c/A/) | [Af][Ad] z/ A/A/{/B}c/ | %68
!<(!{/B} c/A/A/{/B}c/{/B} c/A/A/{/B}c/ |{/B} =cA!<)! z/ A/A/{/B}c/ | %70
{/B} c/A/A/{/B}c/{/B} c/A/A/{/B}c/ |!>(!{/B} cA z/ (A/!>)!d/f/) | (a/f/d/A/) (a/f/d/A/) | %73
 c'/b/(3g/a/g/ fe | [^ca]2 e(3e/f/e/ | d2 z2 |!<(!{/B} c/A/A/{/B}c/{/B} c/A/A/{/B}c/ | %77
{/B} =cA!<)! z/ A/A/{/B}c/ |!f!{/B} c/A/A/{/B}c/{/B} c/A/A/{/B}c/ |!>(!{/B} cA z/ (A/!>)!d/f/) | %80
 (a/f/d/A/) (a/f/d/A/) | [Ag][^ce] z/!p! (A/c/e/) | (g/e/^c/A/) (g/e/c/A/) | %83
 [Af][Ad] z/ A/A/{/B}c/ |!<(!{/B} c/A/A/{/B}c/{/B} c/A/A/{/B}c/ |{/B} =cA!<)! z/ A/A/{/B}c/ | %86
{/B} c/A/A/{/B}c/{/B} c/A/A/{/B}c/ |!>(!{/B} cA z/ (A/!>)!d/f/) | (a/f/d/A/) (a/f/d/A/) | %89
 c'/b/(3g/a/g/ fe | [^ca]2 e(3e/f/e/ | d2 z2 ||!pp! [Afa]/[Bgb][Geg]/ [Afa][Fdf]/[Geg]/ | [E^ce]4 | %94
 [a^c']/[ae'][ac']/!f! [ae'][ac']/[ae']/ |!8va(! (3d'/e'/d'/ [fa]3!8va)! | %96
 [Afa]/[Bgb][Geg]/ [Afa][Fdf]/[Geg]/ | [E^ce]4 | [a^c']/[ae'][ac']/ [ae'][ac']/[ae']/ | %99
 (3d'/e'/d'/ [fa]3 |!p! [FA]/[Fd][FA]/ [Fd][FA] |{/c} [GB](3G/A/G/ FE | [^CA]2 E(3E/F/E/ | %103
 D2 !>![dfad']2 |] %104
V:2
 !>![A,,A,]/!>![B,,B,]!>![G,,G,]/ !>![A,,A,]!>![F,,F,] | %1
 !>![E,,E,]/!>![G,,G,]!>![E,,E,]/ !>![G,,G,]!>![E,,E,] | %2
 !>![D,,D,]/!>![F,,F,]!>![D,,D,]/ !>![F,,F,]!>![D,,D,] | !fermata![A,,,A,,]2 z2 || %4
 [D,,D,]z/[A,DF]/ [A,DF][D,,D,] | [^C,,^C,]z/[A,^CG]/ [A,CG][A,,,A,,] | %6
 [^C,,^C,]z/[A,^CG]/ [A,CG][A,,,A,,] | [D,,D,]z/[A,DF]/ [A,DF][A,,,A,,] | %8
 [D,,D,]z/[DF]/ [DF][D,,D,] | [^C,,^C,]z/[A,^CG]/ [A,CG][A,,,A,,] | %10
 [^C,,^C,]z/[A,^CG]/ [A,CG][A,,,A,,] | [D,D]z/[A,DF]/ [A,DF][A,,A,] | %12
 [D,D]z/[A,,A,]/ [F,,F,][D,,D,] | [^C,,^C,]z/[A,^CG]/ [A,CG][A,CG] | %14
 [A,,A,]z/[A,^CG]/ [A,CG][^C,^C] | [D,D]z/[B,,B,]/ [A,,A,][F,,F,] | %16
 [D,,D,]z/[A,DF]/ [A,DF][D,,D,] | [^C,,^C,]z/[A,^CG]/ [A,CG][A,,,A,,] | %18
 [^C,,^C,]z/[A,^CG]/ [A,CG][C,,C,] | [D,,D,]z/[A,DF]/ [A,DF][A,,,A,,] | %20
 [D,,D,]z/[DF]/ [DF][D,,D,] | [^C,,^C,]z/[A,^CG]/ [A,CG][A,,,A,,] | %22
 [^C,,^C,]z/[A,^CG]/ [A,CG][^C,^C] | [D,D]z/[A,DF]/ [A,DF][A,,A,] | %24
 [D,D]z/[A,,A,]/ [F,,F,][D,,D,] | [^C,,^C,]z/[A,^CG]/ [A,CG][A,CG] | %26
 [A,,A,]z/[A,^CG]/ [A,CG][^C,^C] | [D,D]z/[D,D]/ [A,,A,][F,,F,] || [A,,,A,,]A,,F,,D,, | %29
 [D,,D,]z/[A,DF]/ [A,DF][A,,A,] | [F,,F,]z/"^gliss."[A,DF]/ [A,DF][D,,D,] | %31
 [^C,,^C,]z/[A,^CG]/ [A,CG][A,,,A,,] | [^C,,^C,]2 z2 | [^A,,,^A,,]z/[A,^CG]/ [A,CG][A,,,A,,] | %34
 [^C,,^C,]z/"^gliss."[A,^CG]/ [A,CG][A,,,A,,] | [D,,D,]z/[A,DF]/ [A,DF][A,DF] | %36
 [A,,,A,,]A,,F,,D,, | [D,,D,]z/[A,DF]/ [A,DF][A,,A,] | [F,,F,]z/"^gliss."[A,DF]/ [A,DF][D,,D,] | %39
 [G,,,G,,]z/[G,B,D]/ [G,B,D][D,,D,] | [G,,,G,,]z/[G,B,D]/ [G,B,D][G,,,G,,] | %41
 [F,,,F,,]z/[A,DF]/ [A,DF][F,,F,] | [E,,E,]z/[A,^CG]/ [A,CG][A,,,A,,] | %43
 [D,,D,]x/[B,,B,]/ [A,,A,][F,,F,] | [A,,,A,,]A,,F,,D,, | [D,,D,]z/[A,DF]/ [A,DF][A,,A,] | %46
 [F,,F,]z/"^gliss."[A,DF]/ [A,DF][D,,D,] | [^C,,^C,]z/[A,^CG]/ [A,CG][A,,,A,,] | [^C,,^C,]2 z2 | %49
 [^A,,,^A,,]z/[A,^CG]/ [A,CG][A,,,A,,] | [^C,,^C,]z/"^gliss."[A,^CG]/ [A,CG][A,,,A,,] | %51
 [D,,D,]z/[A,DF]/ [A,DF][A,DF] | [A,,,A,,]A,,F,,D,, | [D,,D,]z/[A,DF]/ [A,DF][A,,A,] | %54
 [F,,F,]z/"^gliss."[A,DF]/ [A,DF][D,,D,] | [G,,,G,,]z/[G,B,D]/ [G,B,D][D,,D,] | %56
 [G,,,G,,]z/[G,B,D]/ [G,B,D][G,,,G,,] | [F,,,F,,]z/[A,DF]/ [A,DF][F,,F,] | %58
 [E,,E,]z/[A,^CG]/ [A,CG][A,,,A,,] | [D,,D,]2 [D,,D,][A,,A,] | %60
 !tenuto![G,,G,]!tenuto![F,,F,]!tenuto![E,,E,]!tenuto![D,,D,] | [^C,,^C,]z/[A,^CG]/ [A,CG][B,,B,] | %62
 !tenuto![A,,A,]!tenuto![G,,G,]!tenuto![F,,F,]!tenuto![E,,E,] | [D,,D,]z/[A,DF]/ [A,DF][A,DF] | %64
 [D,,D,][A,DF] [A,,A,][F,,F,] | [E,,E,]z/[A,^CE]/ [A,CE][A,,,A,,] | %66
 [^C,,^C,][A,^CG] [A,,,A,,][A,CG] | D,z/[A,DF]/ [A,DF][A,,A,] | %68
 !tenuto![G,,G,]!tenuto![F,,F,]!tenuto![E,,E,]!tenuto![D,,D,] | [^C,,^C,]z/[A,^CG]/ [A,CG][B,,B,] | %70
 !tenuto![A,,A,]!tenuto![G,,G,]!tenuto![F,,F,]!tenuto![E,,E,] | [D,,D,]z/[A,DF]/ [A,DF][A,DF] | %72
 [D,,D,][A,DF] [A,,A,][F,,F,] | [E,,E,]z/[A,^CG]/ [A,CG][A,CG] | %74
 [A,,,A,,]z/[A,^CG]/ [A,CG][^C,,^C,] | [D,,D,]z/[A,DF]/ [A,DF][A,,A,] | %76
 !tenuto![G,,G,]!tenuto![F,,F,]!tenuto![E,,E,]!tenuto![D,,D,] | [^C,,^C,]z/[A,^CG]/ [A,CG][B,,B,] | %78
 !tenuto![A,,A,]!tenuto![G,,G,]!tenuto![F,,F,]!tenuto![E,,E,] | [D,,D,]z/[A,DF]/ [A,DF][A,DF] | %80
 [D,,D,][A,DF] [A,,A,][F,,F,] | [E,,E,]z/[A,^CE]/ [A,CE][A,,,A,,] | %82
 [^C,,^C,][A,^CG] [A,,,A,,][A,CG] | D,z/[A,DF]/ [A,DF][A,,A,] | %84
 !tenuto![G,,G,]!tenuto![F,,F,]!tenuto![E,,E,]!tenuto![D,,D,] | [^C,,^C,]z/[A,^CG]/ [A,CG][B,,B,] | %86
 !tenuto![A,,A,]!tenuto![G,,G,]!tenuto![F,,F,]!tenuto![E,,E,] | [D,,D,]z/[A,DF]/ [A,DF][A,DF] | %88
 [D,,D,][A,DF] [A,,A,][F,,F,] | [E,,E,]z/[A,^CG]/ [A,CG][A,CG] | %90
 [A,,,A,,]z/[A,^CG]/ [A,CG][^C,,^C,] | [D,,D,]z/[A,DF]/ [A,DF][A,,A,] || %92
 [D,,D,]z/[A,DF]/ [A,DF][D,,D,] | [^C,,^C,]z/[A,^CG]/ [A,CG][A,,,A,,] | %94
 [^C,,^C,]z/[A,^CG]/ [A,CG][A,,,A,,] | [D,,D,]z/[A,DF]/ [A,DF][A,,,A,,] | %96
 [D,,D,]z/[DF]/ [DF][D,,D,] | [^C,,^C,]z/[A,^CG]/ [A,CG][A,,,A,,] | %98
 [^C,,^C,]z/[A,^CG]/ [A,CG][A,,,A,,] | [D,D]z/[A,DF]/ [A,DF][A,,A,] | %100
 [D,D]z/[A,,A,]/ [F,,F,][D,,D,] | [^C,,^C,]z/[A,^CG]/ [A,CG][A,CG] | %102
 [A,,A,]z/[A,^CG]/ [A,CG][^C,^C] | [D,D]2 !>![D,,D,]2 |] %104

